site12/img/icons/sign-out.svg

<?xml version="1.0" encoding="UTF-8"?>
<svg width="24px" height="20px" viewBox="0 0 24 20" version="1.1" xmlns="http://www.w3.org/2000/svg" xmlns:xlink="http://www.w3.org/1999/xlink">
    <!-- Generator: Sketch 50.2 (55047) - http://www.bohemiancoding.com/sketch -->
    <title>sign-out</title>
    <desc>Created with Sketch.</desc>
    <defs></defs>
    <g id="Page-1" stroke="none" stroke-width="1" fill="none" fill-rule="evenodd">
        <g id="sign-out" transform="translate(-1.000000, 0.000000)" fill="#283593" fill-rule="nonzero">
            <path d="M10.8,18.12 C10.777904,18.0551642 10.777904,17.9848358 10.8,17.92 C10.8,17.86 10.8,17.81 10.69,17.78 C10.58,17.75 10.57,17.71 10.57,17.69 C10.57,17.67 10.51,17.69 10.39,17.69 L10.21,17.69 L5.41,17.69 C4.75845014,17.7002355 4.13190144,17.4394753 3.68,16.97 C3.20950293,16.496921 2.9622806,15.8461445 3,15.18 L3,4.41 C2.98976453,3.75845014 3.25052469,3.13190144 3.72,2.68 C4.1689932,2.23532929 4.77815242,1.99022381 5.41,2 L10.31,2 C10.4221952,2.00654693 10.5327795,1.97087459 10.62,1.9 C10.7044485,1.82129123 10.7577021,1.71478409 10.77,1.6 C10.7951089,1.48132462 10.811817,1.3610262 10.82,1.24 C10.82,1.13 10.82,1 10.82,0.84 C10.82,0.68 10.82,0.57 10.82,0.53 C10.8288509,0.383160805 10.7653717,0.241265929 10.65,0.15 C10.5628056,0.0544088005 10.4393852,-4.1366484e-05 10.31,1.41542594e-16 L5.41,1.41542594e-16 C4.23694711,-0.0168652328 3.10862792,0.449651354 2.29,1.29 C1.44965135,2.10862792 0.983134767,3.23694711 1,4.41 L1,15.18 C0.980749809,16.3535074 1.44764176,17.4827345 2.29,18.3 C3.10862792,19.1403486 4.23694711,19.6068652 5.41,19.59 L10.31,19.59 C10.4221952,19.5965469 10.5327795,19.5608746 10.62,19.49 C10.7085477,19.4144273 10.7626705,19.3061818 10.77,19.19 C10.7951089,19.0713246 10.811817,18.9510262 10.82,18.83 C10.82,18.73 10.82,18.59 10.82,18.43 C10.82,18.27 10.8,18.16 10.8,18.12 Z" id="Shape"></path>
            <path d="M24.71,9.11 L16.38,0.78 C15.9937017,0.411745823 15.3862983,0.411745823 15,0.78 C14.8062225,0.956726196 14.6970803,1.20775326 14.7,1.47 L14.7,5.88 L7.86,5.88 C7.30771525,5.88 6.86,6.32771525 6.86,6.88 L6.86,12.75 C6.86,13.3022847 7.30771525,13.75 7.86,13.75 L14.71,13.75 L14.71,18.16 C14.7070803,18.4222467 14.8162225,18.6732738 15.01,18.85 C15.39495,19.2119426 15.99505,19.2119426 16.38,18.85 L24.71,10.52 C25.0719426,10.13505 25.0719426,9.53495001 24.71,9.15 L24.71,9.11 Z" id="Shape"></path>
        </g>
    </g>
</svg>

<svg width="24" height="20" viewBox="0 0 24 20" xmlns="http://www.w3.org/2000/svg" xmlns:xlink="http://www.w3.org/1999/xlink"><g id="Page-1" stroke="none" stroke-width="1" fill="none" fill-rule="evenodd"><g id="sign-out" transform="translate(-1)" fill="#283593" fill-rule="nonzero"><path d="M10.8 18.12a.31.31 0 0 1 0-.2c0-.06 0-.11-.11-.14-.11-.03-.12-.07-.12-.09 0-.02-.06 0-.18 0H5.41a2.35 2.35 0 0 1-1.73-.72A2.35 2.35 0 0 1 3 15.18V4.41a2.35 2.35 0 0 1 .72-1.73A2.35 2.35 0 0 1 5.41 2h4.9a.45.45 0 0 0 .31-.1.48.48 0 0 0 .15-.3 2.58 2.58 0 0 0 .05-.36V.53a.45.45 0 0 0-.17-.38.46.46 0 0 0-.34-.15h-4.9a4.27 4.27 0 0 0-3.12 1.29A4.27 4.27 0 0 0 1 4.41v10.77a4.25 4.25 0 0 0 1.29 3.12 4.27 4.27 0 0 0 3.12 1.29h4.9a.45.45 0 0 0 .31-.1.43.43 0 0 0 .15-.3 2.58 2.58 0 0 0 .05-.36v-.4c0-.16-.02-.27-.02-.31z" id="Shape"/><path d="M24.71 9.11L16.38.78a1 1 0 0 0-1.38 0 .92.92 0 0 0-.3.69v4.41H7.86a1 1 0 0 0-1 1v5.87a1 1 0 0 0 1 1h6.85v4.41a.92.92 0 0 0 .3.69 1 1 0 0 0 1.37 0l8.33-8.33a1 1 0 0 0 0-1.37v-.04z" id="Shape"/></g></g></svg>
